Hatter-kde/actions/24/select-rectangular.svg

<?xml version="1.0" encoding="UTF-8"?>
<svg viewBox="0 0 24 24" xmlns="http://www.w3.org/2000/svg">
 <defs id="defs3051">
  <style id="current-color-scheme" type="text/css">.ColorScheme-Text {
        color:#363636;
      }</style>
 </defs>
 <path class="ColorScheme-Text" d="m3 4v2h1v5 2 5h-1v2h2v-1h6 2 1 5v1h2v-2h-1v-5-2-1-4h1v-2h-2v1h-5-1-2-1-5v-1h-2zm2 2h14v12h-6-2-6v-12zm1 1v10h3v-1h-2v-8h2 8 1v-1h-12zm10 2-0.99609 0.99414-0.003906-0.0039062-5 4.998 0.007812 0.007813-0.003906 1.0039h-0.003906v0.99023 0.009766h2l0.009766-0.009766c4e-3 -2e-5 0.005765 0.001854 0.009765 0.001954l-0.005859-0.00586 0.98633-0.98633 4-3.9961-0.70508-0.70898-4.9902 4.9863-0.59375-0.5918 4.9922-4.9883 0.5918 0.59375 0.70508 0.70312 1-1-2-1.998z" fill="currentColor"/>
</svg>

<svg xmlns="http://www.w3.org/2000/svg" viewBox="0 0 24 24">
  <defs id="defs3051">
    <style type="text/css" id="current-color-scheme">
      .ColorScheme-Text {
        color:#363636;
      }
      </style>
  </defs>
 <path style="fill:currentColor;fill-opacity:1;stroke:none" 
     d="M 3 4 L 3 6 L 4 6 L 4 11 L 4 13 L 4 18 L 3 18 L 3 20 L 5 20 L 5 19 L 11 19 L 13 19 L 14 19 L 19 19 L 19 20 L 21 20 L 21 18 L 20 18 L 20 13 L 20 11 L 20 10 L 20 6 L 21 6 L 21 4 L 19 4 L 19 5 L 14 5 L 13 5 L 11 5 L 10 5 L 5 5 L 5 4 L 3 4 z M 5 6 L 19 6 L 19 18 L 13 18 L 11 18 L 5 18 L 5 6 z M 6 7 L 6 17 L 9 17 L 9 16 L 7 16 L 7 8 L 9 8 L 17 8 L 18 8 L 18 7 L 6 7 z M 16 9 L 15.003906 9.9941406 L 15 9.9902344 L 10 14.988281 L 10.007812 14.996094 L 10.003906 16 L 10 16 L 10 16.990234 L 10 17 L 12 17 L 12.005859 16.994141 L 12.009766 16.990234 C 12.013766 16.990214 12.015531 16.992088 12.019531 16.992188 L 12.013672 16.986328 L 13 16 L 17 12.003906 L 16.294922 11.294922 L 11.304688 16.28125 L 10.710938 15.689453 L 15.703125 10.701172 L 16.294922 11.294922 L 17 11.998047 L 18 10.998047 L 16 9 z "
     class="ColorScheme-Text"
     />
</svg>
